X: 19081
T: Irish Girl, The
R: reel
M: 4/4
K: Dmajor
AG|FGAF DEFD|EA A2 ABAG|FGAF DEFA|(3Bcd ec dBAG|
F3A D3F|EA A2 ABAG|FD D2 DEFA|(3Bcd ec d2||
g|fddc dfaf|edcd efge|fddc dfag|fgeg fdde|
fddc dfaf|edcd efge|fdef gbag|fdec dBAG||

